FINK
CUT[WAS KLINGET UND SINGET DIE STRASSEN HERAUF]
REG[Europa, Mitteleuropa, Deutschland]
KEY[F0212  08  F 6/8]
MEL[-1  -1-1-1-3-3-3  -5-5-5-3_
    -1  -6_-61-7-6  -5_-5-3_
    -5  -5-2-2-2-3-4  -3_.-50
    -5  -5-2-2-2-3-4  -3_.-50
    -5  -5-3-4-5_1  -7_.10 //] >>
FCT[Abschieds - Lied, Liebe]
